!!! Genre: Scheidemann Prelude
!!! Title: 5. Praeambulum in d
!!! Number: 1
!!! Level: 1
**kern	**fb	**text	**text
*clefF4	*clefF4	*	*
*k[b-]	*k[b-]	*	*
*met(c)	*met(c)	*	*
*d:	*d:	*d:	*d:
=1	=1	=1	=1
1D	#	.	.
=2	=	=	=
1GG	5 3	.	.
=3	=	=	=
1GG	.	.	.
=4	=	=	=
1D	5 3	.	.
=5	=	=	=
2AA	5 3	.	.
4A	5 3	.	.
4B	.	.	.
=6	=	=	=
4c	5 3	.	.
4G	5 3	.	.
4A	5 #	.	.
4B-X	6	.	.
=7	=	=	=
2A	6 4	.	.
.	5 #	.	.
2D[	5 3	.	.
=8	=	=	=
4D]	.	.	.
4A	5 3	.	.
4E	5 3	.	.
4F	6	.	.
=9	=	=	=
2E	6 4	.	.
.	5 #	.	.
2AA	#	.	.
=10	=	=	=
2AA	#	.	.
2D	5 3	.	.
=11	=	=	=
2BB-	5 3	.	.
2GG	5	.	.
.	6	.	.
=12	=	=	=
1AA[	7 #	.	.
.	6 4	.	.
=13	=	=	=
1AA]	5 4	.	.
.	#	.	.
.	7	.	.
=14	=	=	=
1DD	#	.	.
=||	=	=	=
*-	*-	*-	*-
